X: 36885
T: Shoe The Donkey
R: mazurka
M: 3/4
K: Gmajor
|:"Trio"B>c|d2 B2 d2|g4 d2|f2 e2 c2|A4 G2|
F2 A2 c2|f4 e2|1 e>d ^c>d e>d|B4:|2 e>d c>A F>D|G4||
|:"Trio"B>c|d2 B2 d2|g4 d>e|f2 e2 c2|A4 A>G|
F2 A2 d2|f4 f>e|1 d>e f>e d>c|B4:|2 d>e d>c A>F|G4||
|:"Trio"B>c|d2 b2 d2|g4 d>g|f2 e2 d2|A2- A>B A>G|
F2 A2 d2|f4 f>e|1 d2 c>d e>d|B4:|2 d2 c>d e>f|g4||

